X: 192
T: Qia Suantai
%%abc-version 2.0
%%abcx-abcm2ps-target-version 5.9.1 (29 Sep 2008)
%%abc-creator hum2abc beta
%%abcx-conversion-date 2013/10/02 07:52:29
%%abc-edited-by Helmut Schaffrath
%%humdrum-veritas 2665561789
%%humdrum-veritas-data 2893968742
%%continueall 1
%%barnumbers 0
L: 1/8
M: 2/4
K: G
d> e d A/ [I:setbarnb 1]| 
d> g e d | 
A2d A | 
G EG2 | 
A A e/ d d/ | 
c d A A/ G/ | 
E/ E A,/ G E | 
D4 |]  



